icon/gr/organization.svg

<svg xmlns="http://www.w3.org/2000/svg" viewBox="0 0 24 24" height="1em" width="1em">
  <path fill="none" stroke="#000" stroke-width="2" d="M20,3 L20,23 L4,23 L4,3 L20,3 Z M8.042,9 L10.042,9 L10.042,7 L8.042,7 L8.042,9 Z M14,9 L16,9 L16,7 L14,7 L14,9 Z M8.042,15 L10.042,15 L10.042,13 L8.042,13 L8.042,15 Z M10.042,23 L14.042,23 L14.042,19 L10.042,19 L10.042,23 Z M14,15 L16,15 L16,13 L14,13 L14,15 Z M2,3 L22,3 L22,1 L2,1 L2,3 Z"/>
</svg>

<svg xmlns="http://www.w3.org/2000/svg" width="24" height="24"><path fill="none" stroke="#000" stroke-width="2" d="M20 3v20H4V3h16ZM8.042 9h2V7h-2v2ZM14 9h2V7h-2v2Zm-5.958 6h2v-2h-2v2Zm2 8h4v-4h-4v4ZM14 15h2v-2h-2v2ZM2 3h20V1H2v2Z"/></svg>
